X: 196
T:Untitled. HA.195
M:C
L:1/8
Q:1/4=140
S:Henry Atkinson's original MS,Hartburn,N'umberland,1694.
O:England
A:Hartburn,Northumberland
N:"="indicate double slash; u/v are bowing ups and downs. NBr
H:1/8
Z:vmp.Neil Brookes, Jan.2004
K:D
"u"a"u"g|f2b2 e2a2|d2g2 c2f2|\
B2"u"c"u"d efed|"="c3B A2 "u"B"u"c|!
Bdcd Bede|cfef dgfg|eaga "="f2 "u"e"u"d|d6:|!
|:"u"f"u"g|a2f2 d2 AF|D2F2 A2 "u"d"u"e|\
fgfg a2 "u"g"u"f|"="e4 e2 ef|!
gfeg fedf|edce dcBd|cBAd e2"="c2|d6:|]
